;FLAVOR:Marlin
;TIME:1197
;Filament used: 15.8063m
;Layer height: 0.8
;MINX:87.208
;MINY:84.979
;MINZ:0.5
;MAXX:147.792
;MAXY:150.021
;MAXZ:53.755
;Generated with Cura_SteamEngine 5.4.0
M82 ;absolute extrusion mode
;HEADER;
G21; Set to metric [change to G20 if you want Imperial]
G91;Force coordinates to be absolute relative to the origin 
G1 Z10 F1000;
G90; Force coordinates to be absolute relative to the origin
G28 X; Home X axis
G28 Y; Home Y axis
G28 Z; Home Z axis
M302 P1; Disable Cold Extrusion Checking
G92 E0; Reset extruder to [0] zero end of cleaning run
G91; Force coordinates to be absolute relative to the origin
G1 Z10 F1000;
G90;
T0;
M117 Printing...;ENDHEADER
G92 E0
;LAYER_COUNT:67
;LAYER:0
M107
;MESH:cube.stl
G0 F1500 X87.208 Y150.021 Z0.5
;TYPE:WALL-OUTER
G1 F450 X87.208 Y84.979 E37.85785
G1 X147.792 Y84.979 E73.12091
G1 X147.792 Y150.021 E110.97876
G1 X87.208 Y150.021 E146.24182
G1 X87.208 Y84.979 Z0.629 E184.09974
G1 X147.792 Y84.979 Z0.75 E219.36288
G1 X147.792 Y150.021 Z0.879 E257.2208
G1 X87.208 Y150.021 Z1 E292.48393
;TIME_ELAPSED:73.944156
;LAYER:1
M106 S4.2
;MESH:cube.stl
G0 F2250 X87.208 Y150.021 Z1.3
;TYPE:WALL-OUTER
G1 F675 X87.208 Y84.979 Z1.507 E353.0568
G1 X147.792 Y84.979 Z1.7 E409.47798
G1 X147.792 Y150.021 Z1.907 E470.05085
G1 X87.208 Y150.021 Z2.1 E526.47203
;TIME_ELAPSED:96.311259
;LAYER:2
M106 S8.5
;TYPE:WALL-OUTER
;MESH:cube.stl
G1 F900 X87.208 Y84.979 Z2.307 E587.0449
G1 X147.792 Y84.979 Z2.5 E643.46608
G1 X147.792 Y150.021 Z2.707 E704.03894
G1 X87.208 Y150.021 Z2.9 E760.46013
;TIME_ELAPSED:113.063340
;LAYER:3
M106 S12.8
;TYPE:WALL-OUTER
;MESH:cube.stl
G1 X87.208 Y84.979 Z3.107 E821.03299
G1 X147.792 Y84.979 Z3.3 E877.45418
G1 X147.792 Y150.021 Z3.507 E938.02704
G1 X87.208 Y150.021 Z3.7 E994.44823
;TIME_ELAPSED:129.815421
;LAYER:4
M106 S17
;TYPE:WALL-OUTER
;MESH:cube.stl
G1 X87.208 Y84.979 Z3.907 E1055.02109
G1 X147.792 Y84.979 Z4.1 E1111.44228
G1 X147.792 Y150.021 Z4.307 E1172.01514
G1 X87.208 Y150.021 Z4.5 E1228.43633
;TIME_ELAPSED:146.567501
;LAYER:5
M106 S21.2
;TYPE:WALL-OUTER
;MESH:cube.stl
G1 X87.208 Y84.979 Z4.707 E1289.00919
G1 X147.792 Y84.979 Z4.9 E1345.43037
G1 X147.792 Y150.021 Z5.107 E1406.00324
G1 X87.208 Y150.021 Z5.3 E1462.42442
;TIME_ELAPSED:163.319582
;LAYER:6
M106 S25.5
;TYPE:WALL-OUTER
;MESH:cube.stl
G1 X87.208 Y84.979 Z5.507 E1522.99729
G1 X147.792 Y84.979 Z5.7 E1579.41847
G1 X147.792 Y150.021 Z5.907 E1639.99134
G1 X87.208 Y150.021 Z6.1 E1696.41252
;TIME_ELAPSED:180.071663
;LAYER:7
;TYPE:WALL-OUTER
;MESH:cube.stl
G1 X87.208 Y84.979 Z6.307 E1756.98539
G1 X147.792 Y84.979 Z6.5 E1813.40657
G1 X147.792 Y150.021 Z6.707 E1873.97944
G1 X87.208 Y150.021 Z6.9 E1930.40062
;TIME_ELAPSED:196.823743
;LAYER:8
;TYPE:WALL-OUTER
;MESH:cube.stl
G1 X87.208 Y84.979 Z7.107 E1990.97349
G1 X147.792 Y84.979 Z7.3 E2047.39467
G1 X147.792 Y150.021 Z7.507 E2107.96754
G1 X87.208 Y150.021 Z7.7 E2164.38872
;TIME_ELAPSED:213.575824
;LAYER:9
;TYPE:WALL-OUTER
;MESH:cube.stl
G1 X87.208 Y84.979 Z7.907 E2224.96159
G1 X147.792 Y84.979 Z8.1 E2281.38277
G1 X147.792 Y150.021 Z8.307 E2341.95564
G1 X87.208 Y150.021 Z8.5 E2398.37682
;TIME_ELAPSED:230.327905
;LAYER:10
;TYPE:WALL-OUTER
;MESH:cube.stl
G1 X87.208 Y84.979 Z8.707 E2458.94969
G1 X147.792 Y84.979 Z8.9 E2515.37087
G1 X147.792 Y150.021 Z9.107 E2575.94373
G1 X87.208 Y150.021 Z9.3 E2632.36492
;TIME_ELAPSED:247.079986
;LAYER:11
;TYPE:WALL-OUTER
;MESH:cube.stl
G1 X87.208 Y84.979 Z9.507 E2692.93778
G1 X147.792 Y84.979 Z9.7 E2749.35897
G1 X147.792 Y150.021 Z9.907 E2809.93183
G1 X87.208 Y150.021 Z10.1 E2866.35302
;TIME_ELAPSED:263.832066
;LAYER:12
;TYPE:WALL-OUTER
;MESH:cube.stl
G1 X87.208 Y84.979 Z10.307 E2926.92588
G1 X147.792 Y84.979 Z10.5 E2983.34707
G1 X147.792 Y150.021 Z10.707 E3043.91993
G1 X87.208 Y150.021 Z10.9 E3100.34111
;TIME_ELAPSED:280.584147
;LAYER:13
;TYPE:WALL-OUTER
;MESH:cube.stl
G1 X87.208 Y84.979 Z11.107 E3160.91398
G1 X147.792 Y84.979 Z11.3 E3217.33516
G1 X147.792 Y150.021 Z11.507 E3277.90803
G1 X87.208 Y150.021 Z11.7 E3334.32921
;TIME_ELAPSED:297.336228
;LAYER:14
;TYPE:WALL-OUTER
;MESH:cube.stl
G1 X87.208 Y84.979 Z11.907 E3394.90208
G1 X147.792 Y84.979 Z12.1 E3451.32326
G1 X147.792 Y150.021 Z12.307 E3511.89613
G1 X87.208 Y150.021 Z12.5 E3568.31731
;TIME_ELAPSED:314.088308
;LAYER:15
;TYPE:WALL-OUTER
;MESH:cube.stl
G1 X87.208 Y84.979 Z12.707 E3628.89018
G1 X147.792 Y84.979 Z12.9 E3685.31136
G1 X147.792 Y150.021 Z13.107 E3745.88423
G1 X87.208 Y150.021 Z13.3 E3802.30541
;TIME_ELAPSED:330.840389
;LAYER:16
;TYPE:WALL-OUTER
;MESH:cube.stl
G1 X87.208 Y84.979 Z13.507 E3862.87828
G1 X147.792 Y84.979 Z13.7 E3919.29946
G1 X147.792 Y150.021 Z13.907 E3979.87233
G1 X87.208 Y150.021 Z14.1 E4036.29351
;TIME_ELAPSED:347.592470
;LAYER:17
;TYPE:WALL-OUTER
;MESH:cube.stl
G1 X87.208 Y84.979 Z14.307 E4096.86638
G1 X147.792 Y84.979 Z14.5 E4153.28756
G1 X147.792 Y150.021 Z14.707 E4213.86043
G92 E0
G1 X87.208 Y150.021 Z14.9 E56.42118
;TIME_ELAPSED:364.345813
;LAYER:18
;TYPE:WALL-OUTER
;MESH:cube.stl
G1 X87.208 Y84.979 Z15.107 E116.99405
G1 X147.792 Y84.979 Z15.3 E173.41523
G1 X147.792 Y150.021 Z15.507 E233.9881
G1 X87.208 Y150.021 Z15.7 E290.40928
;TIME_ELAPSED:381.097893
;LAYER:19
;TYPE:WALL-OUTER
;MESH:cube.stl
G1 X87.208 Y84.979 Z15.907 E350.98215
G1 X147.792 Y84.979 Z16.1 E407.40333
G1 X147.792 Y150.021 Z16.307 E467.9762
G1 X87.208 Y150.021 Z16.5 E524.39738
;TIME_ELAPSED:397.849974
;LAYER:20
;TYPE:WALL-OUTER
;MESH:cube.stl
G1 X87.208 Y84.979 Z16.707 E584.97025
G1 X147.792 Y84.979 Z16.9 E641.39143
G1 X147.792 Y150.021 Z17.107 E701.9643
G1 X87.208 Y150.021 Z17.3 E758.38548
;TIME_ELAPSED:414.602055
;LAYER:21
;TYPE:WALL-OUTER
;MESH:cube.stl
G1 X87.208 Y84.979 Z17.507 E818.95835
G1 X147.792 Y84.979 Z17.7 E875.37953
G1 X147.792 Y150.021 Z17.907 E935.95239
G1 X87.208 Y150.021 Z18.1 E992.37358
;TIME_ELAPSED:431.354135
;LAYER:22
;TYPE:WALL-OUTER
;MESH:cube.stl
G1 X87.208 Y84.979 Z18.307 E1052.94644
G1 X147.792 Y84.979 Z18.5 E1109.36763
G1 X147.792 Y150.021 Z18.707 E1169.94049
G1 X87.208 Y150.021 Z18.9 E1226.36168
;TIME_ELAPSED:448.106216
;LAYER:23
;TYPE:WALL-OUTER
;MESH:cube.stl
G1 X87.208 Y84.979 Z19.107 E1286.93454
G1 X147.792 Y84.979 Z19.3 E1343.35573
G1 X147.792 Y150.021 Z19.507 E1403.92859
G1 X87.208 Y150.021 Z19.7 E1460.34978
;TIME_ELAPSED:464.858297
;LAYER:24
;TYPE:WALL-OUTER
;MESH:cube.stl
G1 X87.208 Y84.979 Z19.907 E1520.92264
G1 X147.792 Y84.979 Z20.1 E1577.34382
G1 X147.792 Y150.021 Z20.307 E1637.91669
G1 X87.208 Y150.021 Z20.5 E1694.33787
;TIME_ELAPSED:481.610378
;LAYER:25
;TYPE:WALL-OUTER
;MESH:cube.stl
G1 X87.208 Y84.979 Z20.707 E1754.91074
G1 X147.792 Y84.979 Z20.9 E1811.33192
G1 X147.792 Y150.021 Z21.107 E1871.90479
G1 X87.208 Y150.021 Z21.3 E1928.32597
;TIME_ELAPSED:498.362458
;LAYER:26
;TYPE:WALL-OUTER
;MESH:cube.stl
G1 X87.208 Y84.979 Z21.507 E1988.89884
G1 X147.792 Y84.979 Z21.7 E2045.32002
G1 X147.792 Y150.021 Z21.907 E2105.89289
G1 X87.208 Y150.021 Z22.1 E2162.31407
;TIME_ELAPSED:515.114539
;LAYER:27
;TYPE:WALL-OUTER
;MESH:cube.stl
G1 X87.208 Y84.979 Z22.307 E2222.88694
G1 X147.792 Y84.979 Z22.5 E2279.30812
G1 X147.792 Y150.021 Z22.707 E2339.88099
G1 X87.208 Y150.021 Z22.9 E2396.30217
;TIME_ELAPSED:531.866620
;LAYER:28
;TYPE:WALL-OUTER
;MESH:cube.stl
G1 X87.208 Y84.979 Z23.107 E2456.87504
G1 X147.792 Y84.979 Z23.3 E2513.29622
G1 X147.792 Y150.021 Z23.507 E2573.86909
G1 X87.208 Y150.021 Z23.7 E2630.29027
;TIME_ELAPSED:548.618700
;LAYER:29
;TYPE:WALL-OUTER
;MESH:cube.stl
G1 X87.208 Y84.979 Z23.907 E2690.86314
G1 X147.792 Y84.979 Z24.1 E2747.28432
G1 X147.792 Y150.021 Z24.307 E2807.85718
G1 X87.208 Y150.021 Z24.5 E2864.27837
;TIME_ELAPSED:565.370781
;LAYER:30
;TYPE:WALL-OUTER
;MESH:cube.stl
G1 X87.208 Y84.979 Z24.707 E2924.85123
G1 X147.792 Y84.979 Z24.9 E2981.27242
G1 X147.792 Y150.021 Z25.107 E3041.84528
G1 X87.208 Y150.021 Z25.3 E3098.26647
;TIME_ELAPSED:582.122862
;LAYER:31
;TYPE:WALL-OUTER
;MESH:cube.stl
G1 X87.208 Y84.979 Z25.507 E3158.83933
G1 X147.792 Y84.979 Z25.7 E3215.26052
G1 X147.792 Y150.021 Z25.907 E3275.83338
G1 X87.208 Y150.021 Z26.1 E3332.25456
;TIME_ELAPSED:598.874943
;LAYER:32
;TYPE:WALL-OUTER
;MESH:cube.stl
G1 X87.208 Y84.979 Z26.307 E3392.82743
G1 X147.792 Y84.979 Z26.5 E3449.24861
G1 X147.792 Y150.021 Z26.707 E3509.82148
G1 X87.208 Y150.021 Z26.9 E3566.24266
;TIME_ELAPSED:615.627023
;LAYER:33
;TYPE:WALL-OUTER
;MESH:cube.stl
G1 X87.208 Y84.979 Z27.107 E3626.81553
G1 X147.792 Y84.979 Z27.3 E3683.23671
G1 X147.792 Y150.021 Z27.507 E3743.80958
G1 X87.208 Y150.021 Z27.7 E3800.23076
;TIME_ELAPSED:632.379104
;LAYER:34
;TYPE:WALL-OUTER
;MESH:cube.stl
G1 X87.208 Y84.979 Z27.907 E3860.80363
G1 X147.792 Y84.979 Z28.1 E3917.22481
G1 X147.792 Y150.021 Z28.307 E3977.79768
G1 X87.208 Y150.021 Z28.5 E4034.21886
;TIME_ELAPSED:649.131185
;LAYER:35
;TYPE:WALL-OUTER
;MESH:cube.stl
G1 X87.208 Y84.979 Z28.707 E4094.79173
G1 X147.792 Y84.979 Z28.9 E4151.21291
G1 X147.792 Y150.021 Z29.107 E4211.78578
G92 E0
G1 X87.208 Y150.021 Z29.3 E56.42118
;TIME_ELAPSED:665.884527
;LAYER:36
;TYPE:WALL-OUTER
;MESH:cube.stl
G1 X87.208 Y84.979 Z29.507 E116.99405
G1 X147.792 Y84.979 Z29.7 E173.41523
G1 X147.792 Y150.021 Z29.907 E233.9881
G1 X87.208 Y150.021 Z30.1 E290.40928
;TIME_ELAPSED:682.636608
;LAYER:37
;TYPE:WALL-OUTER
;MESH:cube.stl
G1 X87.208 Y84.979 Z30.307 E350.98215
G1 X147.792 Y84.979 Z30.5 E407.40333
G1 X147.792 Y150.021 Z30.707 E467.9762
G1 X87.208 Y150.021 Z30.9 E524.39738
;TIME_ELAPSED:699.388689
;LAYER:38
;TYPE:WALL-OUTER
;MESH:cube.stl
G1 X87.208 Y84.979 Z31.107 E584.97025
G1 X147.792 Y84.979 Z31.3 E641.39143
G1 X147.792 Y150.021 Z31.507 E701.9643
G1 X87.208 Y150.021 Z31.7 E758.38548
;TIME_ELAPSED:716.140770
;LAYER:39
;TYPE:WALL-OUTER
;MESH:cube.stl
G1 X87.208 Y84.979 Z31.907 E818.95835
G1 X147.792 Y84.979 Z32.1 E875.37953
G1 X147.792 Y150.021 Z32.307 E935.95239
G1 X87.208 Y150.021 Z32.5 E992.37358
;TIME_ELAPSED:732.892850
;LAYER:40
;TYPE:WALL-OUTER
;MESH:cube.stl
G1 X87.208 Y84.979 Z32.707 E1052.94644
G1 X147.792 Y84.979 Z32.9 E1109.36763
G1 X147.792 Y150.021 Z33.107 E1169.94049
G1 X87.208 Y150.021 Z33.3 E1226.36168
;TIME_ELAPSED:749.644931
;LAYER:41
;TYPE:WALL-OUTER
;MESH:cube.stl
G1 X87.208 Y84.979 Z33.507 E1286.93454
G1 X147.792 Y84.979 Z33.7 E1343.35573
G1 X147.792 Y150.021 Z33.907 E1403.92859
G1 X87.208 Y150.021 Z34.1 E1460.34978
;TIME_ELAPSED:766.397012
;LAYER:42
;TYPE:WALL-OUTER
;MESH:cube.stl
G1 X87.208 Y84.979 Z34.307 E1520.92264
G1 X147.792 Y84.979 Z34.5 E1577.34382
G1 X147.792 Y150.021 Z34.707 E1637.91669
G1 X87.208 Y150.021 Z34.9 E1694.33787
;TIME_ELAPSED:783.149092
;LAYER:43
;TYPE:WALL-OUTER
;MESH:cube.stl
G1 X87.208 Y84.979 Z35.107 E1754.91074
G1 X147.792 Y84.979 Z35.3 E1811.33192
G1 X147.792 Y150.021 Z35.507 E1871.90479
G1 X87.208 Y150.021 Z35.7 E1928.32597
;TIME_ELAPSED:799.901173
;LAYER:44
;TYPE:WALL-OUTER
;MESH:cube.stl
G1 X87.208 Y84.979 Z35.907 E1988.89884
G1 X147.792 Y84.979 Z36.1 E2045.32002
G1 X147.792 Y150.021 Z36.307 E2105.89289
G1 X87.208 Y150.021 Z36.5 E2162.31407
;TIME_ELAPSED:816.653254
;LAYER:45
;TYPE:WALL-OUTER
;MESH:cube.stl
G1 X87.208 Y84.979 Z36.707 E2222.88694
G1 X147.792 Y84.979 Z36.9 E2279.30812
G1 X147.792 Y150.021 Z37.107 E2339.88099
G1 X87.208 Y150.021 Z37.3 E2396.30217
;TIME_ELAPSED:833.405335
;LAYER:46
;TYPE:WALL-OUTER
;MESH:cube.stl
G1 X87.208 Y84.979 Z37.507 E2456.87504
G1 X147.792 Y84.979 Z37.7 E2513.29622
G1 X147.792 Y150.021 Z37.907 E2573.86909
G1 X87.208 Y150.021 Z38.1 E2630.29027
;TIME_ELAPSED:850.157415
;LAYER:47
;TYPE:WALL-OUTER
;MESH:cube.stl
G1 X87.208 Y84.979 Z38.307 E2690.86314
G1 X147.792 Y84.979 Z38.5 E2747.28432
G1 X147.792 Y150.021 Z38.707 E2807.85718
G1 X87.208 Y150.021 Z38.9 E2864.27837
;TIME_ELAPSED:866.909496
;LAYER:48
;TYPE:WALL-OUTER
;MESH:cube.stl
G1 X87.208 Y84.979 Z39.107 E2924.85123
G1 X147.792 Y84.979 Z39.3 E2981.27242
G1 X147.792 Y150.021 Z39.507 E3041.84528
G1 X87.208 Y150.021 Z39.7 E3098.26647
;TIME_ELAPSED:883.661577
;LAYER:49
;TYPE:WALL-OUTER
;MESH:cube.stl
G1 X87.208 Y84.979 Z39.907 E3158.83933
G1 X147.792 Y84.979 Z40.1 E3215.26052
G1 X147.792 Y150.021 Z40.307 E3275.83338
G1 X87.208 Y150.021 Z40.5 E3332.25456
;TIME_ELAPSED:900.413657
;LAYER:50
;TYPE:WALL-OUTER
;MESH:cube.stl
G1 X87.208 Y84.979 Z40.707 E3392.82743
G1 X147.792 Y84.979 Z40.9 E3449.24861
G1 X147.792 Y150.021 Z41.107 E3509.82148
G1 X87.208 Y150.021 Z41.3 E3566.24266
;TIME_ELAPSED:917.165738
;LAYER:51
;TYPE:WALL-OUTER
;MESH:cube.stl
G1 X87.208 Y84.979 Z41.507 E3626.81553
G1 X147.792 Y84.979 Z41.7 E3683.23671
G1 X147.792 Y150.021 Z41.907 E3743.80958
G1 X87.208 Y150.021 Z42.1 E3800.23076
;TIME_ELAPSED:933.917819
;LAYER:52
;TYPE:WALL-OUTER
;MESH:cube.stl
G1 X87.208 Y84.979 Z42.307 E3860.80363
G1 X147.792 Y84.979 Z42.5 E3917.22481
G1 X147.792 Y150.021 Z42.707 E3977.79768
G1 X87.208 Y150.021 Z42.9 E4034.21886
;TIME_ELAPSED:950.669900
;LAYER:53
;TYPE:WALL-OUTER
;MESH:cube.stl
G1 X87.208 Y84.979 Z43.107 E4094.79173
G1 X147.792 Y84.979 Z43.3 E4151.21291
G1 X147.792 Y150.021 Z43.507 E4211.78578
G92 E0
G1 X87.208 Y150.021 Z43.7 E56.42118
;TIME_ELAPSED:967.423242
;LAYER:54
;TYPE:WALL-OUTER
;MESH:cube.stl
G1 X87.208 Y84.979 Z43.907 E116.99405
G1 X147.792 Y84.979 Z44.1 E173.41523
G1 X147.792 Y150.021 Z44.307 E233.9881
G1 X87.208 Y150.021 Z44.5 E290.40928
;TIME_ELAPSED:984.175323
;LAYER:55
;TYPE:WALL-OUTER
;MESH:cube.stl
G1 X87.208 Y84.979 Z44.707 E350.98215
G1 X147.792 Y84.979 Z44.9 E407.40333
G1 X147.792 Y150.021 Z45.107 E467.9762
G1 X87.208 Y150.021 Z45.3 E524.39738
;TIME_ELAPSED:1000.927404
;LAYER:56
;TYPE:WALL-OUTER
;MESH:cube.stl
G1 X87.208 Y84.979 Z45.507 E584.97025
G1 X147.792 Y84.979 Z45.7 E641.39143
G1 X147.792 Y150.021 Z45.907 E701.9643
G1 X87.208 Y150.021 Z46.1 E758.38548
;TIME_ELAPSED:1017.679484
;LAYER:57
;TYPE:WALL-OUTER
;MESH:cube.stl
G1 X87.208 Y84.979 Z46.307 E818.95835
G1 X147.792 Y84.979 Z46.5 E875.37953
G1 X147.792 Y150.021 Z46.707 E935.95239
G1 X87.208 Y150.021 Z46.9 E992.37358
;TIME_ELAPSED:1034.431565
;LAYER:58
;TYPE:WALL-OUTER
;MESH:cube.stl
G1 X87.208 Y84.979 Z47.107 E1052.94644
G1 X147.792 Y84.979 Z47.3 E1109.36763
G1 X147.792 Y150.021 Z47.507 E1169.94049
G1 X87.208 Y150.021 Z47.7 E1226.36168
;TIME_ELAPSED:1051.183646
;LAYER:59
;TYPE:WALL-OUTER
;MESH:cube.stl
G1 X87.208 Y84.979 Z47.907 E1286.93454
G1 X147.792 Y84.979 Z48.1 E1343.35573
G1 X147.792 Y150.021 Z48.307 E1403.92859
G1 X87.208 Y150.021 Z48.5 E1460.34978
;TIME_ELAPSED:1067.935726
;LAYER:60
;TYPE:WALL-OUTER
;MESH:cube.stl
G1 X87.208 Y84.979 Z48.707 E1520.92264
G1 X147.792 Y84.979 Z48.9 E1577.34382
G1 X147.792 Y150.021 Z49.107 E1637.91669
G1 X87.208 Y150.021 Z49.3 E1694.33787
;TIME_ELAPSED:1084.687807
;LAYER:61
;TYPE:WALL-OUTER
;MESH:cube.stl
G1 X87.208 Y84.979 Z49.507 E1754.91074
G1 X147.792 Y84.979 Z49.7 E1811.33192
G1 X147.792 Y150.021 Z49.907 E1871.90479
G1 X87.208 Y150.021 Z50.1 E1928.32597
;TIME_ELAPSED:1101.439888
;LAYER:62
;TYPE:WALL-OUTER
;MESH:cube.stl
G1 X87.208 Y84.979 Z50.307 E1988.89884
G1 X147.792 Y84.979 Z50.5 E2045.32002
G1 X147.792 Y150.021 Z50.707 E2105.89289
G1 X87.208 Y150.021 Z50.9 E2162.31407
;TIME_ELAPSED:1118.191969
;LAYER:63
;TYPE:WALL-OUTER
;MESH:cube.stl
G1 X87.208 Y84.979 Z51.107 E2222.88694
G1 X147.792 Y84.979 Z51.3 E2279.30812
G1 X147.792 Y150.021 Z51.507 E2339.88099
G1 X87.208 Y150.021 Z51.7 E2396.30217
;TIME_ELAPSED:1134.944049
;LAYER:64
;TYPE:WALL-OUTER
;MESH:cube.stl
G1 X87.208 Y84.979 Z51.907 E2456.87504
G1 X147.792 Y84.979 Z52.1 E2513.29622
G1 X147.792 Y150.021 Z52.307 E2573.86909
G1 X87.208 Y150.021 Z52.5 E2630.29027
;TIME_ELAPSED:1151.696130
;LAYER:65
;TYPE:WALL-OUTER
;MESH:cube.stl
G1 X87.208 Y84.979 Z52.707 E2690.86314
G1 X147.792 Y84.979 Z52.9 E2747.28432
G1 X147.792 Y150.021 Z53.107 E2807.85718
G1 X87.208 Y150.021 Z53.3 E2864.27837
;TIME_ELAPSED:1168.448211
;LAYER:66
;TYPE:WALL-OUTER
;MESH:cube.stl
G1 X87.208 Y84.979 Z53.418 E2924.85103
G1 X147.792 Y84.979 Z53.527 E2981.27201
G1 X147.792 Y150.021 Z53.645 E3041.84467
G1 X87.208 Y150.021 Z53.755 E3098.26566
G1 X87.208 Y84.979 E3140.66646
G1 X147.792 Y84.979 E3168.8769
G1 X147.792 Y150.021
;TIME_ELAPSED:1197.911434
M107
;FOOTER
G91; relative positioning
M107; turn off layer fan
G1 Z50 F1000
M400;Wait finish move
