;Generated with Cura_SteamEngine 5.4.0
M82 ;absolute extrusion mode
;HEADER;
G21; Set to metric [change to G20 if you want Imperial]
G91;Force coordinates to be absolute relative to the origin 
G1 Z10 F1000;
G90; Force coordinates to be absolute relative to the origin
G28 X; Home X axis
G28 Y; Home Y axis
G28 Z; Home Z axis
M302 P1; Disable Cold Extrusion Checking
G92 E0; Reset extruder to [0] zero end of cleaning run
G91; Force coordinates to be absolute relative to the origin
G1 Z10 F1000;
G90;
T0;
M117 Printing...;ENDHEADER
G92 E0
;LAYER_COUNT:73
;LAYER:0
M106 S25.5
;MESH:myceliumvase0.stl
G0 F1500 X87.37 Y141.488 Z6
;TYPE:WALL-INNER
G1 F450 X87.451 Y141.685 E2.65668
G1 X88.058 Y142.692 E17.32187
G1 X88.335 Y143.264 E25.24869
G1 X88.795 Y144.379 E40.2926
G1 X88.994 Y144.976 E48.14149
G1 X89.278 Y146.163 E63.36426
G1 X90.754 Y146.598 E82.5566
G1 X92.551 Y147.315 E106.688
G1 X94.223 Y148.143 E129.95914
G1 X95.615 Y148.922 E149.85474
G1 X96.72 Y149.577 E165.87626
G1 X100.051 Y151.586 E214.39375
G1 X101.381 Y152.469 E234.30531
G1 X101.806 Y152.797 E241.00121
G1 X102.923 Y153.725 E259.11379
G1 X103.466 Y154.244 E268.48241
G1 X104.747 Y155.684 E292.52101
G1 X105.116 Y156.158 E300.01323
G1 X105.954 Y157.303 E317.7105
G1 X106.418 Y157.91 E327.23993
G1 X106.894 Y157.915 E333.17719
G1 X107.295 Y157.854 E338.23622
G1 X107.767 Y157.709 E344.39479
G1 X109.262 Y157.054 E364.75239
G1 X111.251 Y156.343 E391.09766
G1 X111.744 Y156.205 E397.48298
G1 X112.351 Y156.075 E405.2255
G1 X113.722 Y155.908 E422.45176
G1 X114.362 Y155.898 E430.43517
G1 X114.903 Y155.925 E437.19121
G1 X116.026 Y156.052 E451.28717
G1 X116.93 Y156.227 E462.77168
G1 X117.613 Y156.464 E471.78872
G1 X118.664 Y156.863 E485.81023
G1 X119.342 Y157.211 E495.3155
G1 X120.236 Y157.746 E508.31008
G1 X120.86 Y158.164 E517.67779
G1 X121.638 Y158.748 E529.81109
G1 X122.525 Y158.599 E541.02924
G1 X124.35 Y158.361 E563.98439
G1 X127.466 Y158.205 E602.89753
G1 X128.426 Y158.105 E614.93597
G1 X129.059 Y157.929 E623.13059
G1 X129.427 Y157.683 E628.65158
G1 X130.408 Y156.848 E644.71933
G1 X131.663 Y155.759 E665.44384
G1 X133.069 Y154.68 E687.54904
G1 X133.498 Y154.382 E694.06403
G1 X134.881 Y153.517 E714.40963
G1 X135.466 Y153.201 E722.70253
G1 X137.138 Y152.391 E745.87492
G1 X139.164 Y151.662 E772.73037
G1 X140.351 Y151.273 E788.31003
G1 X140.913 Y151.041 E795.89338
G1 X141.298 Y150.806 E801.51918
G1 X141.983 Y150.249 E812.53092
G1 X145.267 Y147.228 E868.18575
G1 X146.476 Y146.164 E888.27306
G1 X146.993 Y145.69 E897.02133
G1 X147.184 Y144.127 E916.66094
G1 X147.27 Y143.556 E923.86309
G1 X147.769 Y141.487 E950.40872
G1 X148.048 Y140.664 E961.24743
G1 X148.679 Y139.342 E979.5181
G1 X149.071 Y138.675 E989.16764
G1 X149.928 Y137.435 E1007.96791
G1 X150.082 Y137.284 E1010.65797
G1 X150.855 Y136.433 E1024.99722
G1 X151.272 Y136.027 E1032.25626
G1 X152.217 Y135.214 E1047.80445